!!!COM: Charles Gounod
!!!CNT: Francais
!!!TXO: Francais
!!!OTL: Le Soir
!!!LYR: Alphonse de Lamartine
!!!ENC: Jacob Pegg
!!!YOR: Romantic French Song 1830-1870 -David Tunley, ed.,
!!!YOR: New York: Garland Publishing, Inc., 1995, Vol. 5
!!!ODT: 1840
!!NB: Vocal melody and text only encoded.
!!NB: First instance of melodic material only encoded.
**kern	**silbe
*clef G2	*
*k[b-e-]	*
*M4/4	*
*MM[andante]	*
!!created: 6/18/03 1:20
!!proofed and posted: 7/22/03 0:00
=9	=9
2r	.
4r	.
8r	.
{8g	{Le
=10	=10
4.g	soir
8g	ra-
8g	-me\-
8g	-ne
8.f	le
16e-	si-
=11	=11
2g	-len-
4e-}	-ce.}
8r	.
{8g	{As-
=12	=12
4.b-	-sis
8b-	sur
8.a	ces
16a	ro-
8.g	-chers
16g	de/-
=13	=13
[2f	-serts,
8f]}	|}
8r	.
{4f	{Je
=14	=14
4g	suis
8.g	dans
16g	le
4g	va-
8a	-gue
8b-	des
=15	=15
4.cc	airs
8cc	le
4a	char
8g	de
8f	la
=16	=16
4b-	nuit
8.e-	qui
16f	s'av-
2f	-an-
=17	=17
4e-}	-ce.}
4r	.
4r	.
8r	.
{8b-	{Ve/-
=18	=18
4.cc-	-nus
8cc-	se
8.dd-	le\-
16dd-	-ve a\
8.ee-	l'ho-
16ee-	-ri-
=19	=19
[2cc-	-zon;
8cc-]}	|}
8r	.
{8cc-	{A
8cc-	mes
=20	=20
4.dd-	pieds
8dd-	l'e/-
4dd-	-toi-
8.cc-	-le a-
16b-	-mou-
=21	=21
2a	-reu-
4a}	-se}
4r	.
=22	=22
{4a	{De
8.a	sa
16a	lu-
8a-	-eur
8cc-	my-
8.ee-	-ste/-
16dd-	-ri-
=23	=23
2dd-	-eu-
4cc-}	-se}
8r	.
{8cc-	{Blan-
=24	=24
4b-	-chit
8.b-	les
16b-	ta-
4g-	-pis
8.a	de
16a	ga-
=25	=25
[2b-	-zon
8b-]}	|}
8r	.
{8.dd	{Tout
16dd	a\
=26	=26
*k[b-e-a-]	*
4ee-	coup
8.b-	de/-
16g	-ta-
4.b-	-che/
8a-	des
=27	=27
(4g	cieux,
4f)}	|}
4r	.
{8.f	{Un
16f	ra-
=28	=28
4g	-yon
4b-	de
4a-	l'as-
8.cc	-tre
16bn	noc-
=29	=29
(4bn	-tur-
4dd)	|
4cc}	-ne,}
8r	.
{8cc	{Glis-
=30	=30
4dd	-sant
8dd	sur
8dd	mon
4dd	front
8ee-	ta-
8ff	-ci-
=31	=31
2gg	-tur-
8ee-}	-ne,}
{8ee-	{Vient
8.ff	mol-
16ee-	-le-
=32	=32
[2ee-	-ment
8ee-]	|
8g	vient
(16gq	mol-
16b-q	|
8a-)	|
8g	-le-
=33	=33
4.cc	-ment
8f	tou-
4.b-	-cher
8d	mes
=34	=34
[2e-	yeux!
8e-]}	|}
8r	.
4r	.
*-	*-
